frontend/public/svg/e-commerce/tag.svg

<svg width="168" height="165" viewBox="0 0 168 165" fill="none" xmlns="http://www.w3.org/2000/svg">
<path d="M166.481 33.522C166.269 28.4137 165.764 23.2416 165.275 18.2403C165.033 15.7705 164.783 13.2161 164.573 10.7049C164.048 4.44216 161.145 1.27594 155.698 1.02588H155.667L148.185 1.02908C147.587 1.08815 146.99 1.15538 146.393 1.22233C145.14 1.36147 143.844 1.50621 142.576 1.5771C138.701 1.7915 134.825 1.99764 130.949 2.19498C122.308 2.64392 113.372 3.10858 104.591 3.7275C102.565 3.86993 98.8084 4.40729 96.4285 6.40125L93.0483 9.22883C83.9745 16.8115 74.5921 24.6529 66.053 33.0849C52.7352 46.2379 39.4779 59.8941 26.657 73.1003C21.2383 78.6825 15.8125 84.2574 10.3798 89.8251C10.2321 89.9761 10.0903 90.1402 9.94921 90.3049C9.72166 90.6128 9.43963 90.8766 9.11704 91.0834C5.6857 92.7721 4.03828 95.8621 2.44469 98.8511L2.08896 99.516C1.2163 100.995 0.825206 102.708 0.969856 104.419C1.1145 106.129 1.78772 107.752 2.89625 109.064C15.2262 124.973 27.5167 140.334 42.2883 153.382C46.7796 157.347 52.0238 160.478 56.5617 163.018C57.9799 163.905 59.6027 164.411 61.2735 164.488C63.5838 164.488 65.4741 163.2 67.6251 161.11C69.4537 159.33 71.2743 157.54 73.0858 155.741C77.1092 151.766 81.2697 147.657 85.5018 143.777C95.4781 134.627 105.668 125.369 115.521 116.417C124.539 108.222 133.863 99.7496 143.003 91.3807C148.313 86.5185 153.577 81.4339 158.668 76.5159C160.114 75.1192 161.561 73.7232 163.011 72.3272C165.729 69.7136 167.022 66.8271 166.962 63.502C166.897 59.9827 166.873 56.4004 166.846 52.9349C166.799 46.5717 166.749 39.9882 166.481 33.522ZM158.08 59.9803C158.137 61.1169 157.933 62.2515 157.486 63.2979C157.039 64.3442 156.358 65.2746 155.497 66.0184C134.962 84.9866 119.258 99.5311 104.578 113.185C95.7045 121.437 86.7121 129.856 78.0156 138.001C73.3333 142.384 68.6516 146.765 63.9698 151.145C63.2748 151.794 62.5613 152.424 61.6897 153.194C61.3458 153.497 60.9769 153.823 60.5739 154.178C59.5454 153.462 58.4861 152.764 57.457 152.085C54.8556 150.462 52.3809 148.644 50.0541 146.646C35.1782 133.163 22.3823 117.65 11.8277 104.254C10.7369 102.869 10.6003 101.683 11.3853 100.405L11.6807 99.9242C12.5445 98.3772 13.5824 96.934 14.774 95.6226C18.5256 91.8447 22.276 88.0648 26.025 84.283C42.9447 67.2228 60.4406 49.5812 77.8567 32.4449C81.8151 28.5502 86.2152 24.9513 90.4709 21.4714C93.2275 19.2195 96.0714 16.8908 98.7834 14.4971C101.719 11.9039 105.169 11.7237 108.822 11.5334C109.259 11.5104 109.695 11.4872 110.129 11.4603C121.046 10.7771 132.162 10.2789 142.91 9.7919C146.223 9.64311 149.535 9.49242 152.847 9.33969C152.956 9.33443 153.065 9.33266 153.175 9.33266C153.665 9.33266 154.189 9.37841 154.867 9.43748C155.172 9.46439 155.504 9.49412 155.87 9.52234C156.084 12.5311 156.304 15.5156 156.531 18.4765C157.098 26.0323 157.634 33.1686 157.992 40.4638C158.189 44.415 158.142 48.4535 158.099 52.3593C158.074 54.8567 158.045 57.4383 158.08 59.9803Z" fill="black"/>
<path d="M124.597 24.1714H124.335C120.27 24.2223 116.388 25.8675 113.526 28.7526C110.157 32.0351 108.23 36.5203 108.166 41.223C108.088 50.6008 115.852 58.1065 125.84 58.3099C125.994 58.3134 126.147 58.3152 126.299 58.3147C131.16 58.4256 135.872 56.6337 139.431 53.3207C141.035 51.7425 142.309 49.8603 143.178 47.7842C144.047 45.7081 144.494 43.4795 144.492 41.2288C144.623 31.3982 136.44 24.384 124.597 24.1714ZM117.513 36.3726C118.096 34.9175 118.612 33.7754 119.511 33.4229C119.725 33.3406 119.952 33.3001 120.181 33.3031C120.806 33.3366 121.415 33.5051 121.967 33.7972C122.07 33.8459 122.185 33.8675 122.299 33.86C122.413 33.8526 122.523 33.8163 122.619 33.7546C122.716 33.693 122.794 33.608 122.849 33.5075C122.903 33.407 122.931 33.2945 122.93 33.1803V33.1335C123.505 33.3173 124.083 33.4947 124.662 33.6713C126.604 34.2109 128.503 34.8998 130.34 35.732C133.833 37.4332 134.048 40.5626 133.612 42.886C133.042 45.936 131.284 47.6084 128.08 48.1473C123.677 48.8889 120.586 47.9537 118.35 45.2043C116.377 42.7818 116.105 39.8919 117.513 36.3707V36.3726Z" fill="black"/>
</svg>

<svg xmlns="http://www.w3.org/2000/svg" width="168" height="165" fill="none" viewBox="0 0 168 165"><path fill="#000" d="M166.481 33.522c-.212-5.108-.717-10.28-1.206-15.282-.242-2.47-.492-5.024-.702-7.535-.525-6.263-3.428-9.43-8.875-9.68h-.031l-7.482.004q-.897.091-1.792.193c-1.253.14-2.549.284-3.817.355q-5.813.322-11.627.618c-8.641.449-17.577.914-26.358 1.533-2.026.142-5.783.68-8.162 2.673l-3.38 2.828c-9.074 7.583-18.457 15.424-26.996 23.856C52.735 46.238 39.478 59.895 26.657 73.1A9012 9012 0 0 1 10.38 89.825a9 9 0 0 0-.43.48c-.228.308-.51.572-.833.778-3.431 1.69-5.079 4.78-6.672 7.768l-.356.665a8.275 8.275 0 0 0 .807 9.548c12.33 15.909 24.62 31.27 39.392 44.318 4.492 3.965 9.736 7.096 14.274 9.636a9.73 9.73 0 0 0 4.712 1.47c2.31 0 4.2-1.288 6.351-3.378a766 766 0 0 0 5.46-5.369c4.024-3.975 8.185-8.084 12.417-11.964 9.976-9.15 20.166-18.408 30.019-27.36 9.018-8.195 18.342-16.667 27.482-25.036 5.31-4.862 10.574-9.947 15.665-14.865q2.168-2.095 4.343-4.189c2.718-2.613 4.011-5.5 3.951-8.825-.065-3.52-.089-7.102-.116-10.567-.047-6.363-.097-12.947-.365-19.413M158.08 59.98a7.49 7.49 0 0 1-2.583 6.038 19894 19894 0 0 0-50.919 47.167 10328 10328 0 0 0-26.562 24.816L63.97 151.145c-.695.649-1.409 1.279-2.28 2.049l-1.116.984c-1.029-.716-2.088-1.414-3.117-2.093a60.6 60.6 0 0 1-7.403-5.439c-14.876-13.483-27.672-28.996-38.226-42.392-1.091-1.385-1.228-2.571-.443-3.849l.296-.48a23.3 23.3 0 0 1 3.093-4.302q5.628-5.667 11.251-11.34c16.92-17.06 34.416-34.702 51.832-51.838 3.958-3.895 8.358-7.494 12.614-10.974 2.757-2.251 5.6-4.58 8.312-6.974 2.936-2.593 6.386-2.773 10.039-2.964q.656-.034 1.307-.073c10.917-.683 22.033-1.181 32.781-1.668q4.97-.224 9.937-.452.163-.008.328-.007c.49 0 1.014.045 1.692.104q.456.042 1.003.085.32 4.514.661 8.955c.567 7.555 1.103 14.692 1.461 21.987.197 3.951.15 7.99.107 11.895-.025 2.498-.054 5.08-.019 7.621"/><path fill="#000" d="M124.597 24.171h-.262a15.5 15.5 0 0 0-10.809 4.582 17.75 17.75 0 0 0-5.36 12.47c-.078 9.378 7.686 16.883 17.674 17.087q.231.005.459.005a18.65 18.65 0 0 0 13.132-4.994 16.95 16.95 0 0 0 5.061-12.092c.131-9.83-8.052-16.845-19.895-17.058m-7.084 12.202c.583-1.456 1.099-2.598 1.998-2.95a1.8 1.8 0 0 1 .67-.12 4.3 4.3 0 0 1 1.786.494.675.675 0 0 0 .963-.617v-.047q.863.275 1.732.538a39 39 0 0 1 5.678 2.061c3.493 1.701 3.708 4.83 3.272 7.154-.57 3.05-2.328 4.722-5.532 5.261-4.403.742-7.494-.193-9.73-2.943-1.973-2.422-2.245-5.312-.837-8.833z"/></svg>
